X:1
T:Walls of Liscarroll
M:6/8
L:1/8
K:C % transposed from D
Z:bil  irtrad-l 2001-5-03
d | dcA AGE | GED D2E | GEE cEE | GAB cde |
dcA AGE | GED D2E | GEE cEE | EDD D2 :|
A | dAd ecA | dAd ecA | GEE cEE | GAB cde |
[1 dAd ecA | dAd ecA | GEE cEE | EDD D2 :|
[2 dcA AGE | GED D2E | GEE cEE | EDD D2 :|
